packages/ui/public/icons/messages.svg

<svg width="18" height="17" viewBox="0 0 18 17" fill="none" xmlns="http://www.w3.org/2000/svg">
<path d="M3.88525 16.8931C4.23682 16.8931 4.68604 16.7954 5.23291 16.6001C5.77979 16.4048 6.3584 16.1436 6.96875 15.8164C7.5791 15.4941 8.15771 15.1353 8.70459 14.7397C9.76416 14.7446 10.7578 14.6323 11.6855 14.4028C12.6133 14.1733 13.4556 13.8462 14.2124 13.4214C14.9741 12.9917 15.6284 12.4839 16.1753 11.8979C16.7222 11.3071 17.1445 10.6528 17.4424 9.93506C17.7402 9.21729 17.8892 8.45557 17.8892 7.6499C17.8892 6.66357 17.6621 5.74072 17.208 4.88135C16.7588 4.01709 16.1313 3.26025 15.3257 2.61084C14.52 1.96143 13.585 1.45361 12.5205 1.0874C11.4609 0.721191 10.3208 0.538086 9.1001 0.538086C7.87939 0.538086 6.73682 0.721191 5.67236 1.0874C4.61279 1.45361 3.68018 1.96143 2.87451 2.61084C2.07373 3.26025 1.44629 4.01709 0.992188 4.88135C0.538086 5.74072 0.311035 6.66357 0.311035 7.6499C0.311035 8.45068 0.462402 9.21729 0.765137 9.94971C1.06787 10.6772 1.49512 11.3389 2.04688 11.9346C2.59863 12.5303 3.25049 13.0283 4.00244 13.4287C3.90479 13.5996 3.79248 13.79 3.66553 14C3.54346 14.2051 3.4165 14.4053 3.28467 14.6006C3.15771 14.7959 3.04297 14.9619 2.94043 15.0986C2.74512 15.3623 2.65967 15.6333 2.68408 15.9116C2.7085 16.1899 2.82568 16.4219 3.03564 16.6074C3.24561 16.7979 3.52881 16.8931 3.88525 16.8931ZM4.94727 14.9375C4.87402 14.9619 4.8252 14.9595 4.80078 14.9302C4.78125 14.9058 4.7959 14.8618 4.84473 14.7983C5.00098 14.603 5.19141 14.354 5.41602 14.0513C5.64062 13.7485 5.82861 13.4604 5.97998 13.187C6.10205 12.9575 6.13135 12.7524 6.06787 12.5718C6.00928 12.3862 5.86279 12.2349 5.62842 12.1177C4.91553 11.7808 4.30518 11.3828 3.79736 10.9238C3.29443 10.46 2.90869 9.95215 2.64014 9.40039C2.37158 8.84375 2.2373 8.26025 2.2373 7.6499C2.2373 6.93213 2.41309 6.26074 2.76465 5.63574C3.12109 5.01074 3.61182 4.46143 4.23682 3.98779C4.8667 3.50928 5.59668 3.13574 6.42676 2.86719C7.25684 2.59375 8.14795 2.45703 9.1001 2.45703C10.0522 2.45703 10.9434 2.59375 11.7734 2.86719C12.6035 3.13574 13.3311 3.50928 13.9561 3.98779C14.5859 4.46143 15.0767 5.01074 15.4282 5.63574C15.7847 6.26074 15.9629 6.93213 15.9629 7.6499C15.9629 8.36279 15.7847 9.03418 15.4282 9.66406C15.0767 10.2891 14.5859 10.8384 13.9561 11.312C13.3311 11.7856 12.6035 12.1592 11.7734 12.4326C10.9434 12.7012 10.0522 12.8354 9.1001 12.8354C9.0415 12.8354 8.9707 12.8354 8.8877 12.8354C8.80957 12.8306 8.72168 12.8281 8.62402 12.8281C8.46289 12.8281 8.31641 12.8525 8.18457 12.9014C8.05273 12.9502 7.90869 13.0381 7.75244 13.165C7.46924 13.3799 7.14941 13.6094 6.79297 13.8535C6.43652 14.0928 6.08984 14.3101 5.75293 14.5054C5.4209 14.7056 5.15234 14.8496 4.94727 14.9375Z" fill="white" fill-opacity="0.8"/>
</svg>

<svg width="18" height="17" fill="none" xmlns="http://www.w3.org/2000/svg"><path d="M3.885 16.893c.352 0 .801-.098 1.348-.293a12.842 12.842 0 0 0 1.736-.784c.61-.322 1.189-.68 1.736-1.076 1.06.005 2.053-.108 2.98-.337a10.08 10.08 0 0 0 2.527-.982 8.109 8.109 0 0 0 1.963-1.523c.547-.59.97-1.245 1.267-1.963.298-.718.447-1.48.447-2.285 0-.986-.227-1.91-.681-2.769a7.121 7.121 0 0 0-1.882-2.27 9.187 9.187 0 0 0-2.806-1.524C11.46.721 10.32.538 9.1.538c-1.22 0-2.363.183-3.428.55A9.205 9.205 0 0 0 2.875 2.61 7.251 7.251 0 0 0 .992 4.88 5.838 5.838 0 0 0 .311 7.65c0 .8.151 1.567.454 2.3.303.727.73 1.389 1.282 1.985a7.346 7.346 0 0 0 1.955 1.494c-.097.17-.21.361-.336.571a12.5 12.5 0 0 1-.381.6 9.18 9.18 0 0 1-.345.499c-.195.263-.28.534-.256.813.024.278.142.51.352.695.21.19.493.286.85.286Zm1.062-1.956c-.073.025-.122.023-.146-.007-.02-.024-.005-.068.044-.132.156-.195.346-.444.571-.747.225-.303.413-.59.564-.864.122-.23.151-.435.088-.615-.059-.186-.205-.337-.44-.454a7.463 7.463 0 0 1-1.83-1.194A5.128 5.128 0 0 1 2.64 9.4a3.98 3.98 0 0 1-.403-1.75c0-.718.176-1.39.528-2.014a5.46 5.46 0 0 1 1.472-1.648 7.3 7.3 0 0 1 2.19-1.12A8.493 8.493 0 0 1 9.1 2.456c.952 0 1.843.137 2.673.41.83.269 1.558.642 2.183 1.12a5.333 5.333 0 0 1 1.472 1.649c.357.625.535 1.296.535 2.014 0 .713-.178 1.384-.535 2.014a5.332 5.332 0 0 1-1.472 1.648 7.429 7.429 0 0 1-2.183 1.12 8.634 8.634 0 0 1-2.673.403h-.212a4.332 4.332 0 0 0-.264-.007c-.161 0-.308.024-.44.073a1.58 1.58 0 0 0-.432.264 18.661 18.661 0 0 1-2 1.34c-.331.2-.6.345-.805.433Z" fill="#fff" fill-opacity=".8"/></svg>
